X: 3
T: This Is My Love, Do You Like Her?
R: jig
M: 6/8
L: 1/8
K: Ador
A2A AGE c2B c2d|efe ede g3 g2e|
def g2e dBA G2A|1Bde dBG A2B c2B:|2Bde dBG A3 ABd||
|:eaa age dgg gfg|eaa agf g2b a2g|
eaf g2e dBA G2A|1Bde dBG A3 ABd:|2bde dBG A2B c2B||


Tune 6	Setting 12358

